X:304
T: Der Reiter und sein Liebchen (53b), S. 168
N: T0193
O: Luxemburg
S: Singendes Volk, Esch-Alzette 1937 posth.]
N: Junglinster, fff Wachtmeister-Kaiser aus Kntzig, 25.12.1932;
N: (53c), Diekirch, ? Welter, 26.3.1933
R: Liebeslieder]
M: 3/4
L: 1/8
K: G
D2 | G3FB2 | A3GA2 | B3cB2 | A2z2
G2 | GGB2d2 | d3cB2 | AAc2e2 | e3d
G2 | GGB2d2 | d3c
B2 | A2G2A2 | G2z2

